src/assets/svgs/refactor/scroll-logo-light.svg

<svg fill="none" height="23" viewBox="0 0 81 23" width="81" xmlns="http://www.w3.org/2000/svg"><g fill="#fff8f3"><path d="m30.6132 6.10094c-1.5002 0-2.6563.85893-2.6563 2.13404 0 1.23969.9796 1.66473 2.1974 1.89492l1.5355.248c2.0385.3365 3.4416 1.2751 3.4416 3.5065 0 2.3289-1.9061 3.6925-4.3329 3.6925-2.1885 0-4.2535-1.2928-4.5536-3.8253-.0264-.2125.1412-.3985.353-.3985h.9178c.1765 0 .3265.1329.353.31.1941 1.7887 1.5796 2.497 2.9386 2.497 1.4826 0 2.6563-.7349 2.6563-2.2225 0-1.3283-.9443-1.7887-2.1974-2.0278l-1.5178-.2657c-2.1268-.3542-3.4593-1.3813-3.4593-3.32943 0-2.25801 1.9591-3.63938 4.3152-3.63938 1.8797 0 3.9535 1.0626 4.3595 3.58625.0353.21252-.1324.41619-.353.41619h-.9531c-.1677 0-.3177-.12397-.3442-.29222-.2735-1.67358-1.4913-2.28457-2.7003-2.28457z"/><path d="m41.2378 7.48242c2.268 0 3.8829 1.21313 4.4565 3.19668.0618.2213-.1059.4516-.3442.4516h-1.0678c-.15 0-.2823-.0974-.3353-.2391-.3971-1.13346-1.3149-1.77987-2.7092-1.77987-1.8973 0-2.9563 1.54957-2.9563 3.41797 0 1.8596 1.0678 3.418 2.9563 3.418 1.3943 0 2.3121-.6464 2.7092-1.7798.053-.1417.1853-.2391.3353-.2391h1.0678c.2383 0 .406.2302.3354.4516-.6089 2.0721-2.1709 3.1967-4.4477 3.1967-2.921 0-4.7741-2.2669-4.7741-5.0474-.0089-2.77156 1.8531-5.04728 4.7741-5.04728z"/><path d="m47.4065 15.9652h2.2856v-6.37559h-2.0385c-.1941 0-.353-.15939-.353-.3542v-.9032c0-.19481.1589-.3542.353-.3542h2.7798c.5824 0 1.059.47817 1.059 1.0626v.25679c.503-1.21313 1.5884-1.5142 3.2739-1.5142.6442 0 1.0766.10626 1.3237.19481.1412.05313.2295.18595.2295.32763v.93863c0 .23908-.2295.41618-.4589.33649-.3-.09741-.7236-.18596-1.2796-.18596-1.8002 0-3.0798 1.2308-3.0798 3.3649v3.2055h2.9386c.1942 0 .353.1594.353.3542v.9032c0 .1948-.1588.3542-.353.3542h-7.0244c-.1942 0-.353-.1594-.353-.3542v-.9032c-.0089-.1948.15-.3542.3441-.3542z"/><path d="m57.6609 12.5297c0-2.77156 1.8355-5.04728 4.8183-5.04728 2.9827 0 4.8183 2.26687 4.8183 5.04728 0 2.7805-1.8356 5.0474-4.8183 5.0474-2.9828 0-4.8183-2.2669-4.8183-5.0474zm4.8183 3.418c1.9149 0 3.018-1.5496 3.018-3.418 0-1.8595-1.1031-3.41797-3.018-3.41797-1.915 0-3.0181 1.54957-3.0181 3.41797s1.1031 3.418 3.0181 3.418z"/><path d="m71.286 16.0454h2.7621c.1941 0 .353.1593.353.3542v.8323c0 .1948-.1589.3542-.353.3542h-4.1388c-.1942 0-.353-.1594-.353-.3542v-10.92698h-1.3767c-.1941 0-.3529-.15939-.3529-.3542v-.83236c0-.19481.1588-.3542.3529-.3542h2.0386c.5824 0 1.0589.47817 1.0589 1.06259v10.21865z"/><path d="m77.3926 16.0454h2.7622c.1941 0 .353.1593.353.3542v.8323c0 .1948-.1589.3542-.353.3542h-4.1388c-.1942 0-.353-.1594-.353-.3542v-10.92698h-1.3767c-.1941 0-.353-.15939-.353-.3542v-.83236c0-.19481.1589-.3542.353-.3542h2.0385c.5825 0 1.059.47817 1.059 1.06259v10.21865z"/><path d="m2.78861 8.50953c-.856-.81465-1.45608-1.86839-1.45608-3.11694v-.13282c.0706-2.13404 1.81789-3.8519 3.94465-3.91388h13.53712c.353.01771.6354.26564.6354.62869v11.49372c.3088.0531.4588.0974.7589.2037.2383.0885.5648.2745.5648.2745v-11.97192c-.0177-1.089154-.8825-1.96579094-1.9679-1.96579094h-13.53715c-2.92098.04427474-5.26835 2.44396094-5.26835 5.38380094 0 1.709.776576 3.17007 2.04733 4.19724.08825.07084.16767.15939.39712.15939.39711 0 .6795-.31878.66185-.66412-.00883-.29221-.13237-.39847-.31769-.57557z"/><path d="m18.4613 14.2208h-10.6161c-.7148.0089-1.28841.5844-1.28841 1.3017v1.5319c.01765.7084.61774 1.3105 1.33254 1.3105h.78539v-1.3105h-.78539v-1.4965h.43241c1.34135 0 2.32976 1.2485 2.32976 2.5856 0 1.1866-1.07666 2.7008-2.8769 2.5768-1.59727-.1062-2.46209-1.5319-2.46209-2.5768v-12.9813c0-.58442-.47653-1.06259-1.05896-1.06259h-1.05897v1.32824h.7854v12.72455c-.04412 2.5856 1.83554 3.8873 3.79462 3.8873l10.6956.0354c2.1532 0 3.9005-1.7532 3.9005-3.9227s-1.7561-3.9316-3.9094-3.9316zm2.5768 4.0113c-.0441 1.3902-1.1825 2.5059-2.5768 2.5059l-7.4392-.0265c.5913-.6907.9531-1.5851.9531-2.5591 0-1.5319-.909-2.5856-.909-2.5856h7.404c1.4207 0 2.5768 1.16 2.5768 2.5856z"/><path d="m15.6019 5.66711h-8.004v-1.32824h8.004c.3618 0 .6619.29221.6619.66412 0 .36305-.2912.66412-.6619.66412z"/><path d="m15.6019 11.9186h-8.004v-1.3283h8.004c.3618 0 .6619.2922.6619.6642 0 .363-.2912.6641-.6619.6641z"/><path d="m17.0139 8.79308h-9.416v-1.32824h9.4071c.3619 0 .6619.29222.6619.66412.0088.36306-.2912.66412-.653.66412z"/></g></svg>

<svg width="81" height="23" viewBox="0 0 81 23" fill="none" xmlns="http://www.w3.org/2000/svg">
<path d="M30.6132 6.10094C29.113 6.10094 27.9569 6.95987 27.9569 8.23498C27.9569 9.47467 28.9365 9.89971 30.1543 10.1299L31.6898 10.3779C33.7283 10.7144 35.1314 11.653 35.1314 13.8844C35.1314 16.2133 33.2253 17.5769 30.7985 17.5769C28.61 17.5769 26.545 16.2841 26.2449 13.7516C26.2185 13.5391 26.3861 13.3531 26.5979 13.3531H27.5157C27.6922 13.3531 27.8422 13.486 27.8687 13.6631C28.0628 15.4518 29.4483 16.1601 30.8073 16.1601C32.2899 16.1601 33.4636 15.4252 33.4636 13.9376C33.4636 12.6093 32.5193 12.1489 31.2662 11.9098L29.7484 11.6441C27.6216 11.2899 26.2891 10.2628 26.2891 8.31467C26.2891 6.05666 28.2482 4.67529 30.6043 4.67529C32.484 4.67529 34.5578 5.73789 34.9638 8.26154C34.9991 8.47406 34.8314 8.67773 34.6108 8.67773H33.6577C33.49 8.67773 33.34 8.55376 33.3135 8.38551C33.04 6.71193 31.8222 6.10094 30.6132 6.10094Z" fill="#FFF8F3"/>
<path d="M41.2378 7.48242C43.5058 7.48242 45.1207 8.69555 45.6943 10.6791C45.7561 10.9004 45.5884 11.1307 45.3501 11.1307H44.2823C44.1323 11.1307 44 11.0333 43.947 10.8916C43.5499 9.75814 42.6321 9.11173 41.2378 9.11173C39.3405 9.11173 38.2815 10.6613 38.2815 12.5297C38.2815 14.3893 39.3493 15.9477 41.2378 15.9477C42.6321 15.9477 43.5499 15.3013 43.947 14.1679C44 14.0262 44.1323 13.9288 44.2823 13.9288H45.3501C45.5884 13.9288 45.7561 14.159 45.6855 14.3804C45.0766 16.4525 43.5146 17.5771 41.2378 17.5771C38.3168 17.5771 36.4637 15.3102 36.4637 12.5297C36.4548 9.75814 38.3168 7.48242 41.2378 7.48242Z" fill="#FFF8F3"/>
<path d="M47.4065 15.9652H49.6921V9.58961H47.6536C47.4595 9.58961 47.3006 9.43022 47.3006 9.23541V8.33221C47.3006 8.1374 47.4595 7.97801 47.6536 7.97801H50.4334C51.0158 7.97801 51.4924 8.45618 51.4924 9.04061V9.2974C51.9954 8.08427 53.0808 7.7832 54.7663 7.7832C55.4105 7.7832 55.8429 7.88946 56.09 7.97801C56.2312 8.03114 56.3195 8.16396 56.3195 8.30564V9.24427C56.3195 9.48335 56.09 9.66045 55.8606 9.58076C55.5606 9.48335 55.137 9.3948 54.581 9.3948C52.7808 9.3948 51.5012 10.6256 51.5012 12.7597V15.9652H54.4398C54.634 15.9652 54.7928 16.1246 54.7928 16.3194V17.2226C54.7928 17.4174 54.634 17.5768 54.4398 17.5768H47.4154C47.2212 17.5768 47.0624 17.4174 47.0624 17.2226V16.3194C47.0535 16.1246 47.2124 15.9652 47.4065 15.9652Z" fill="#FFF8F3"/>
<path d="M57.6609 12.5297C57.6609 9.75814 59.4964 7.48242 62.4792 7.48242C65.4619 7.48242 67.2975 9.74929 67.2975 12.5297C67.2975 15.3102 65.4619 17.5771 62.4792 17.5771C59.4964 17.5771 57.6609 15.3102 57.6609 12.5297ZM62.4792 15.9477C64.3941 15.9477 65.4972 14.3981 65.4972 12.5297C65.4972 10.6702 64.3941 9.11173 62.4792 9.11173C60.5642 9.11173 59.4611 10.6613 59.4611 12.5297C59.4611 14.3981 60.5642 15.9477 62.4792 15.9477Z" fill="#FFF8F3"/>
<path d="M71.286 16.0454H74.0481C74.2422 16.0454 74.4011 16.2047 74.4011 16.3996V17.2319C74.4011 17.4267 74.2422 17.5861 74.0481 17.5861H69.9093C69.7151 17.5861 69.5563 17.4267 69.5563 17.2319V6.30492H68.1796C67.9855 6.30492 67.8267 6.14553 67.8267 5.95072V5.11836C67.8267 4.92355 67.9855 4.76416 68.1796 4.76416H70.2182C70.8006 4.76416 71.2771 5.24233 71.2771 5.82675V16.0454H71.286Z" fill="#FFF8F3"/>
<path d="M77.3926 16.0454H80.1548C80.3489 16.0454 80.5078 16.2047 80.5078 16.3996V17.2319C80.5078 17.4267 80.3489 17.5861 80.1548 17.5861H76.016C75.8218 17.5861 75.663 17.4267 75.663 17.2319V6.30492H74.2863C74.0922 6.30492 73.9333 6.14553 73.9333 5.95072V5.11836C73.9333 4.92355 74.0922 4.76416 74.2863 4.76416H76.3248C76.9073 4.76416 77.3838 5.24233 77.3838 5.82675V16.0454H77.3926Z" fill="#FFF8F3"/>
<path d="M2.78861 8.50953C1.93261 7.69488 1.33253 6.64114 1.33253 5.39259V5.25977C1.40313 3.12573 3.15042 1.40787 5.27718 1.34589H18.8143C19.1673 1.3636 19.4497 1.61153 19.4497 1.97458V13.4683C19.7585 13.5214 19.9085 13.5657 20.2086 13.672C20.4469 13.7605 20.7734 13.9465 20.7734 13.9465V1.97458C20.7557 0.885426 19.8909 0.00878906 18.8055 0.00878906H5.26835C2.34737 0.0530638 0 2.45275 0 5.39259C0 7.10159 0.776576 8.56266 2.04733 9.58983C2.13558 9.66067 2.215 9.74922 2.44445 9.74922C2.84156 9.74922 3.12395 9.43044 3.1063 9.0851C3.09747 8.79289 2.97393 8.68663 2.78861 8.50953Z" fill="#FFF8F3"/>
<path d="M18.4613 14.2208H7.8452C7.1304 14.2297 6.55679 14.8052 6.55679 15.5225V17.0544C6.57444 17.7628 7.17453 18.3649 7.88933 18.3649H8.67472V17.0544H7.88933V15.5579C7.88933 15.5579 8.08347 15.5579 8.32174 15.5579C9.66309 15.5579 10.6515 16.8064 10.6515 18.1435C10.6515 19.3301 9.57484 20.8443 7.7746 20.7203C6.17733 20.6141 5.31251 19.1884 5.31251 18.1435V5.1622C5.31251 4.57778 4.83598 4.09961 4.25355 4.09961H3.19458V5.42785H3.97998V18.1524C3.93586 20.738 5.81552 22.0397 7.7746 22.0397L18.4702 22.0751C20.6234 22.0751 22.3707 20.3219 22.3707 18.1524C22.3707 15.9829 20.6146 14.2208 18.4613 14.2208ZM21.0381 18.2321C20.994 19.6223 19.8556 20.738 18.4613 20.738L11.0221 20.7115C11.6134 20.0208 11.9752 19.1264 11.9752 18.1524C11.9752 16.6205 11.0662 15.5668 11.0662 15.5668H18.4702C19.8909 15.5668 21.047 16.7268 21.047 18.1524L21.0381 18.2321Z" fill="#FFF8F3"/>
<path d="M15.6019 5.66711H7.5979V4.33887H15.6019C15.9637 4.33887 16.2638 4.63108 16.2638 5.00299C16.2638 5.36604 15.9726 5.66711 15.6019 5.66711Z" fill="#FFF8F3"/>
<path d="M15.6019 11.9186H7.5979V10.5903H15.6019C15.9637 10.5903 16.2638 10.8825 16.2638 11.2545C16.2638 11.6175 15.9726 11.9186 15.6019 11.9186Z" fill="#FFF8F3"/>
<path d="M17.0139 8.79308H7.5979V7.46484H17.005C17.3669 7.46484 17.6669 7.75706 17.6669 8.12896C17.6757 8.49202 17.3757 8.79308 17.0139 8.79308Z" fill="#FFF8F3"/>
</svg>
